X: 094
M: 2/4
L: 1/8
K: G
|:\
ddgg | ffgf/e/ | de/d/ cd/c/ | B2A2 |\
ddgg | fgag | fe/d/ ed/^c/ | d2z2 :|
|:\

